X: 1
T:Highland Laddie
R:Reel
O:Scotland
M:4/4
K:Em
G3A B2B2|cBAG B4|B2A2 A2GA|B2A2 A2GE|\
G3A B2B2|cBAG B3A|G2E2 E2DE|G2E2 E4::
d2|\
e2g2 d3B|cBAG B4|B2A2 A2GA|B2A2 A3d|\
e2g2 d2B2|cBAG B3A|G2E2 E2DE|G2E2 E4:|
